icons/csharp.svg

<svg width="16" height="16" viewBox="0 0 16 16" fill="none" xmlns="http://www.w3.org/2000/svg">
<path d="M12.85 4.52L8.71 2.13C8.50629 2.01239 8.27522 1.95048 8.04 1.95048C7.80478 1.95048 7.57371 2.01239 7.37 2.13L3.23 4.52C3.02715 4.63595 2.85842 4.80328 2.7408 5.00517C2.62318 5.20705 2.56082 5.43636 2.56 5.67V10.45C2.56109 10.6849 2.62347 10.9155 2.74097 11.119C2.85848 11.3224 3.02704 11.4917 3.23 11.61L7.37 14C7.57371 14.1176 7.80478 14.1795 8.04 14.1795C8.27522 14.1795 8.50629 14.1176 8.71 14L12.85 11.61C13.053 11.4917 13.2215 11.3224 13.339 11.119C13.4565 10.9155 13.5189 10.6849 13.52 10.45V5.67C13.5192 5.43636 13.4568 5.20705 13.3392 5.00517C13.2216 4.80328 13.0529 4.63595 12.85 4.52ZM11.5 7.33H10.18L9.86 8.72H11.14V9.72H9.63L9.27 11.3H8L8.37 9.72H6.77L6.4 11.29H5.12L5.48 9.71H4.48V8.71H5.71L6 7.33H4.86V6.33H6.25L6.61 4.75H7.9L7.54 6.35H9.12L9.48 4.77H10.77L10.4 6.35H11.5V7.33ZM7 8.72H8.57L8.89 7.33H7.31L7 8.72ZM7.32 7.33L7 8.72H8.57L8.89 7.33H7.32ZM7.32 7.33L7 8.72H8.57L8.89 7.33H7.32Z" fill="#BA43AF"/>
</svg>

<svg xmlns="http://www.w3.org/2000/svg" width="16" height="16" fill="none"><path fill="#BA43AF" d="M12.85 4.52 8.71 2.13a1.34 1.34 0 0 0-1.34 0L3.23 4.52a1.33 1.33 0 0 0-.67 1.15v4.78a1.35 1.35 0 0 0 .67 1.16L7.37 14a1.34 1.34 0 0 0 1.34 0l4.14-2.39a1.35 1.35 0 0 0 .67-1.16V5.67a1.33 1.33 0 0 0-.67-1.15ZM11.5 7.33h-1.32l-.32 1.39h1.28v1H9.63l-.36 1.58H8l.37-1.58h-1.6l-.37 1.57H5.12l.36-1.58h-1v-1h1.23L6 7.33H4.86v-1h1.39l.36-1.58H7.9l-.36 1.6h1.58l.36-1.58h1.29l-.37 1.58h1.1v.98ZM7 8.72h1.57l.32-1.39H7.31L7 8.72Zm.32-1.39L7 8.72h1.57l.32-1.39H7.32Zm0 0L7 8.72h1.57l.32-1.39H7.32Z"/></svg>
